src/icons/ibm-cloud.svg

<?xml version="1.0" encoding="UTF-8"?>
<svg xmlns="http://www.w3.org/2000/svg" xmlns:xlink="http://www.w3.org/1999/xlink" width="38.857143" height="32" viewBox="0 0 38.857143 32" version="1.1">
<defs>
<linearGradient id="linear0" gradientUnits="userSpaceOnUse" x1="0.8244" y1="-0.1239" x2="0.2172" y2="1.0427" gradientTransform="matrix(34.699219,0,0,12.171875,0.855469,0)">
<stop offset="0" style="stop-color:rgb(31.37255%,100%,82.352942%);stop-opacity:1;"/>
<stop offset="0.01" style="stop-color:rgb(0%,39.215687%,100%);stop-opacity:1;"/>
</linearGradient>
<linearGradient id="linear1" gradientUnits="userSpaceOnUse" x1="0.8244" y1="-0.1239" x2="0.2172" y2="1.0427" gradientTransform="matrix(22.800781,0,0,19.980469,5.808594,7.09375)">
<stop offset="0" style="stop-color:rgb(31.37255%,100%,82.352942%);stop-opacity:1;"/>
<stop offset="0.01" style="stop-color:rgb(0%,39.215687%,100%);stop-opacity:1;"/>
</linearGradient>
<linearGradient id="linear2" gradientUnits="userSpaceOnUse" x1="0.8244" y1="-0.1239" x2="0.2172" y2="1.0427" gradientTransform="matrix(36.570312,0,0,14.886719,0,15.621094)">
<stop offset="0" style="stop-color:rgb(31.37255%,100%,82.352942%);stop-opacity:1;"/>
<stop offset="0.01" style="stop-color:rgb(0%,39.215687%,100%);stop-opacity:1;"/>
</linearGradient>
<linearGradient id="linear3" gradientUnits="userSpaceOnUse" x1="0.8244" y1="-0.1239" x2="0.2172" y2="1.0427" gradientTransform="matrix(6.914062,0,0,7.417969,0,15.472656)">
<stop offset="0" style="stop-color:rgb(31.37255%,100%,82.352942%);stop-opacity:1;"/>
<stop offset="0.01" style="stop-color:rgb(0%,39.215687%,100%);stop-opacity:1;"/>
</linearGradient>
<linearGradient id="linear4" gradientUnits="userSpaceOnUse" x1="0.8244" y1="-0.1239" x2="0.2172" y2="1.0427" gradientTransform="matrix(16.574219,0,0,8.902344,17.585938,12.59375)">
<stop offset="0" style="stop-color:rgb(31.37255%,100%,82.352942%);stop-opacity:1;"/>
<stop offset="0.01" style="stop-color:rgb(0%,39.215687%,100%);stop-opacity:1;"/>
</linearGradient>
</defs>
<g id="surface1">
<path style=" stroke:none;fill-rule:nonzero;fill:url(#linear0);" d="M 4.847656 12.171875 C 4.734375 12.171875 4.617188 12.132812 4.5 12.078125 L 1.226562 10.296875 C 0.914062 10.152344 0.78125 9.800781 0.894531 9.492188 C 1.03125 9.160156 1.421875 8.976562 1.792969 9.105469 L 1.910156 9.160156 L 5.179688 10.941406 C 5.511719 11.105469 5.648438 11.507812 5.472656 11.820312 C 5.355469 12.042969 5.121094 12.171875 4.847656 12.171875 Z M 10.515625 6.847656 C 10.261719 6.847656 10.050781 6.71875 9.914062 6.515625 L 8.023438 3.433594 C 7.847656 3.15625 7.90625 2.789062 8.160156 2.570312 C 8.453125 2.332031 8.878906 2.367188 9.132812 2.644531 C 9.152344 2.679688 9.191406 2.699219 9.210938 2.734375 L 11.101562 5.820312 C 11.296875 6.113281 11.21875 6.5 10.925781 6.71875 C 10.789062 6.8125 10.652344 6.847656 10.515625 6.847656 Z M 17.527344 4.203125 L 17.527344 0.699219 C 17.527344 0.332031 17.800781 0.0390625 18.191406 0 C 18.578125 -0.015625 18.890625 0.257812 18.910156 0.625 L 18.910156 4.257812 C 18.910156 4.625 18.597656 4.921875 18.210938 4.921875 L 18.171875 4.921875 C 17.820312 4.863281 17.527344 4.554688 17.527344 4.203125 Z M 25.941406 6.847656 C 25.804688 6.847656 25.667969 6.8125 25.550781 6.738281 C 25.257812 6.535156 25.183594 6.136719 25.375 5.835938 L 27.265625 2.753906 C 27.460938 2.441406 27.886719 2.332031 28.21875 2.515625 C 28.257812 2.535156 28.296875 2.550781 28.316406 2.589844 C 28.570312 2.808594 28.628906 3.175781 28.453125 3.453125 L 26.5625 6.535156 C 26.414062 6.730469 26.1875 6.847656 25.941406 6.847656 Z M 31.589844 12.171875 C 31.335938 12.171875 31.101562 12.042969 30.964844 11.820312 C 30.808594 11.492188 30.925781 11.105469 31.257812 10.941406 L 34.488281 9.179688 C 34.78125 9.011719 35.152344 9.066406 35.386719 9.308594 C 35.640625 9.582031 35.601562 9.984375 35.308594 10.226562 C 35.269531 10.242188 35.25 10.28125 35.210938 10.296875 L 31.898438 12.097656 C 31.839844 12.132812 31.726562 12.171875 31.589844 12.171875 Z M 31.589844 12.171875 "/>
<path style=" stroke:none;fill-rule:nonzero;fill:url(#linear1);" d="M 9.445312 27.074219 C 4.597656 22.503906 4.597656 15.089844 9.445312 10.519531 C 14.292969 5.949219 22.164062 5.949219 27.011719 10.519531 C 27.363281 10.847656 27.695312 11.199219 28.003906 11.566406 C 28.214844 11.820312 28.417969 12.082031 28.609375 12.355469 L 27.460938 13.070312 C 27.285156 12.832031 27.109375 12.59375 26.914062 12.371094 C 26.640625 12.042969 26.351562 11.730469 26.039062 11.4375 C 21.734375 7.378906 14.742188 7.378906 10.417969 11.4375 C 6.117188 15.492188 6.117188 22.082031 10.417969 26.15625 Z M 9.445312 27.074219 "/>
<path style=" stroke:none;fill-rule:nonzero;fill:url(#linear2);" d="M 27.089844 30.507812 L 7.964844 30.507812 C 3.523438 30.46875 -0.0390625 27.074219 0 22.890625 L 1.382812 22.910156 C 1.363281 26.359375 4.304688 29.1875 7.964844 29.222656 L 27.070312 29.222656 C 31.550781 29.222656 35.171875 25.808594 35.191406 21.585938 C 35.191406 19.714844 34.453125 17.898438 33.125 16.484375 L 34.160156 15.621094 C 37.644531 19.3125 37.3125 24.964844 33.417969 28.25 C 31.667969 29.699219 29.425781 30.507812 27.089844 30.507812 Z M 27.089844 30.507812 "/>
<path style=" stroke:none;fill-rule:nonzero;fill:url(#linear3);" d="M 1.382812 22.890625 L 0 22.871094 C 0.0195312 19.199219 2.84375 16.082031 6.679688 15.472656 L 6.914062 16.757812 C 3.738281 17.273438 1.402344 19.859375 1.382812 22.890625 Z M 1.382812 22.890625 "/>
<path style=" stroke:none;fill-rule:nonzero;fill:url(#linear4);" d="M 18.96875 21.496094 L 17.585938 21.476562 C 17.625 16.539062 21.910156 12.554688 27.148438 12.59375 C 29.816406 12.609375 32.367188 13.695312 34.160156 15.566406 L 33.125 16.429688 C 30.148438 13.289062 25.007812 13.015625 21.675781 15.824219 C 19.980469 17.292969 18.988281 19.347656 18.96875 21.496094 Z M 18.96875 21.496094 "/>
</g>
</svg>

<svg role="img" viewBox="0 0 38.857 32" xmlns="http://www.w3.org/2000/svg" xmlns:xlink="http://www.w3.org/1999/xlink"><defs><linearGradient gradientTransform="matrix(34.69922 0 0 12.17188 .855 0)" gradientUnits="userSpaceOnUse" id="a" x1=".824" x2=".217" y1="-.124" y2="1.043"><stop offset="0" style="stop-color:rgb(31.37255%,100%,82.352942%);stop-opacity:1"/><stop offset=".01" style="stop-color:rgb(0%,39.215687%,100%);stop-opacity:1"/></linearGradient><linearGradient gradientTransform="matrix(22.80078 0 0 19.98047 5.809 7.094)" gradientUnits="userSpaceOnUse" id="b" x1=".824" x2=".217" y1="-.124" y2="1.043"><stop offset="0" style="stop-color:rgb(31.37255%,100%,82.352942%);stop-opacity:1"/><stop offset=".01" style="stop-color:rgb(0%,39.215687%,100%);stop-opacity:1"/></linearGradient><linearGradient gradientTransform="matrix(36.57031 0 0 14.88672 0 15.621)" gradientUnits="userSpaceOnUse" id="c" x1=".824" x2=".217" y1="-.124" y2="1.043"><stop offset="0" style="stop-color:rgb(31.37255%,100%,82.352942%);stop-opacity:1"/><stop offset=".01" style="stop-color:rgb(0%,39.215687%,100%);stop-opacity:1"/></linearGradient><linearGradient gradientTransform="matrix(6.91406 0 0 7.41797 0 15.473)" gradientUnits="userSpaceOnUse" id="d" x1=".824" x2=".217" y1="-.124" y2="1.043"><stop offset="0" style="stop-color:rgb(31.37255%,100%,82.352942%);stop-opacity:1"/><stop offset=".01" style="stop-color:rgb(0%,39.215687%,100%);stop-opacity:1"/></linearGradient><linearGradient gradientTransform="matrix(16.57422 0 0 8.90234 17.586 12.594)" gradientUnits="userSpaceOnUse" id="e" x1=".824" x2=".217" y1="-.124" y2="1.043"><stop offset="0" style="stop-color:rgb(31.37255%,100%,82.352942%);stop-opacity:1"/><stop offset=".01" style="stop-color:rgb(0%,39.215687%,100%);stop-opacity:1"/></linearGradient></defs><path d="M4.848 12.172a.843.843 0 0 1-.348-.094l-3.273-1.781a.64.64 0 0 1-.332-.805.714.714 0 0 1 .898-.387l.117.055 3.27 1.781c.332.164.468.567.293.88-.118.222-.352.35-.625.35m5.668-5.324a.715.715 0 0 1-.602-.332l-1.89-3.082a.669.669 0 0 1 .136-.864.71.71 0 0 1 .973.075c.02.035.058.054.078.09L11.1 5.82c.196.293.118.68-.175.899a.704.704 0 0 1-.41.129m7.011-2.645V.7c0-.367.274-.66.664-.699.387-.016.7.258.72.625v3.633c0 .367-.313.664-.7.664h-.04c-.35-.059-.644-.367-.644-.719m8.414 2.645a.73.73 0 0 1-.39-.11.663.663 0 0 1-.176-.902l1.89-3.082a.722.722 0 0 1 .954-.238c.039.02.078.035.097.074a.669.669 0 0 1 .137.863l-1.89 3.082a.779.779 0 0 1-.622.313m5.649 5.324a.729.729 0 0 1-.625-.352.652.652 0 0 1 .293-.879l3.23-1.761a.74.74 0 0 1 .899.129c.254.273.215.675-.078.918-.04.015-.059.054-.098.07l-3.313 1.8a.634.634 0 0 1-.308.075m0 0" style="stroke:none;fill-rule:nonzero;fill:url(#a)"/><path d="M9.445 27.074c-4.847-4.57-4.847-11.984 0-16.554 4.848-4.57 12.72-4.57 17.567 0a11.955 11.955 0 0 1 1.597 1.835l-1.148.715c-.176-.238-.352-.476-.547-.699-.273-.328-.562-.64-.875-.934-4.305-4.058-11.297-4.058-15.621 0-4.3 4.055-4.3 10.645 0 14.72Zm0 0" style="stroke:none;fill-rule:nonzero;fill:url(#b)"/><path d="M27.09 30.508H7.965C3.523 30.468-.04 27.074 0 22.89l1.383.02c-.02 3.448 2.922 6.276 6.582 6.312H27.07c4.48 0 8.102-3.414 8.121-7.637 0-1.871-.738-3.688-2.066-5.102l1.035-.863c3.485 3.691 3.153 9.344-.742 12.629a9.927 9.927 0 0 1-6.328 2.258m0 0" style="stroke:none;fill-rule:nonzero;fill:url(#c)"/><path d="M1.383 22.89 0 22.872c.02-3.672 2.844-6.789 6.68-7.398l.234 1.285c-3.176.515-5.512 3.101-5.531 6.133m0 0" style="stroke:none;fill-rule:nonzero;fill:url(#d)"/><path d="m18.969 21.496-1.383-.02c.039-4.937 4.324-8.921 9.562-8.882 2.668.015 5.22 1.101 7.012 2.972l-1.035.864c-2.977-3.14-8.117-3.414-11.45-.606-1.695 1.469-2.687 3.524-2.706 5.672m0 0" style="stroke:none;fill-rule:nonzero;fill:url(#e)"/></svg>
